X:428
T:Andy De Jarlis' Jig 
R:jig
H:also played in E, #325
Z:id:hn-jig-428
M:6/8
K:D
DFA DFA | DFA B2A | DFA DFA | =CEG A2G |
DFA DFA | DFA B2g | fed ABc |1 dfe d3 :|2 dfe d2e ||
|: ~f3 def | gfg Bcd | ~e3 efd | cBc A2e |
faf def | gfg Bcd | efe ABc |1 dfe d2e :|2 dfe d3 ||

